public/assets/img/location.svg

<svg width="20" height="20" viewBox="0 0 20 20" fill="none" xmlns="http://www.w3.org/2000/svg">
<g id="location">
<path id="shape" fill-rule="evenodd" clip-rule="evenodd" d="M11.2886 16.1484C10.9741 16.8252 10.605 17.4199 9.95557 17.4199C9.18311 17.4199 8.9165 16.6816 8.9165 15.7861L8.90283 10.9805C8.90283 10.8711 8.86182 10.8301 8.75244 10.8301L3.94678 10.8164C3.02393 10.8164 2.30615 10.5361 2.30615 9.77051C2.30615 9.11426 2.92822 8.73828 3.58447 8.4375L14.7476 3.30371C15.0894 3.14648 15.397 3.05762 15.6636 3.05762C16.231 3.05762 16.6753 3.49512 16.6753 4.06934C16.6753 4.33594 16.5864 4.64355 16.4292 4.97852L11.2886 16.1484ZM10.3315 10.1123L10.2974 14.7129C10.2974 14.7812 10.3726 14.7949 10.4067 14.7266L14.8706 4.97168C14.9116 4.87598 14.8638 4.81445 14.7612 4.8623L5.00635 9.31934C4.93115 9.35352 4.95166 9.42871 5.01318 9.42871L9.60693 9.40137C10.1265 9.39453 10.3315 9.60645 10.3315 10.1123Z" fill="#141029" fill-opacity="0.4"/>
</g>
</svg>

<svg width="20" height="20" fill="none" xmlns="http://www.w3.org/2000/svg"><path fill-rule="evenodd" clip-rule="evenodd" d="M11.289 16.148c-.315.677-.684 1.272-1.333 1.272-.773 0-1.04-.738-1.04-1.634l-.013-4.806c0-.109-.041-.15-.15-.15l-4.806-.014c-.923 0-1.64-.28-1.64-1.045 0-.657.621-1.033 1.277-1.334l11.164-5.133c.341-.158.649-.246.916-.246a.997.997 0 0 1 1.011 1.011c0 .267-.089.575-.246.91l-5.14 11.17Zm-.957-6.036-.035 4.6c0 .07.076.083.11.015l4.464-9.755c.04-.096-.007-.158-.11-.11L5.006 9.32c-.075.035-.054.11.007.11L9.607 9.4c.52-.006.725.205.725.711Z" fill="#141029" fill-opacity=".4"/></svg>
